bridge.svg

<svg fill="currentColor" viewBox="0 0 24 24"><path d="M7 14v-3.09c-.72-.33-1.39-.73-2-1.2V14zm-2 4H3v-2H1v-2h2V7h2v1.43C6.8 10 9.27 11 12 11s5.2-1 7-2.57V7h2v7h2v2h-2v2h-2v-2H5zm12-7.09V14h2V9.71c-.61.47-1.28.87-2 1.2M16 14v-2.68c-.64.23-1.31.4-2 .52V14zm-3 0v-2.04L12 12l-1-.04V14zm-3 0v-2.16c-.69-.12-1.36-.29-2-.52V14z"/></svg>

<svg  viewBox="0 0 24 24" fill="currentColor"><path  d="M7,14V10.91C6.28,10.58 5.61,10.18 5,9.71V14H7M5,18H3V16H1V14H3V7H5V8.43C6.8,10 9.27,11 12,11C14.73,11 17.2,10 19,8.43V7H21V14H23V16H21V18H19V16H5V18M17,10.91V14H19V9.71C18.39,10.18 17.72,10.58 17,10.91M16,14V11.32C15.36,11.55 14.69,11.72 14,11.84V14H16M13,14V11.96L12,12L11,11.96V14H13M10,14V11.84C9.31,11.72 8.64,11.55 8,11.32V14H10Z"/></svg>
